X: 7593
T: Coen's Memories
R: reel
M: 4/4
K: Edorian
AGe,d, e,AAB|eaaf gedB|G2GB A2Ge,|d,2BG AGe,d,|
AGe,d, e,AAB|eaaf gedB|GABd e2dB|GABG A2Ad:|
|:ea~a2 bage|a2ba gedB|~d3f g2gb|a2ab gafa|
ea~a2 bage|a2ba gedB|GABd e2dB|GABG A2Ad:|

